packages/kaspersky-hexa-ui-icons/src/iconsSVGs/28x20/FlagUg.svg

<svg width="28" height="20" viewBox="0 0 28 20" fill="none" xmlns="http://www.w3.org/2000/svg">
<g clip-path="url(#clip0_5138_1992)">
<rect width="28" height="20" rx="2" fill="white"/>
<mask id="mask0_5138_1992" style="mask-type:luminance" maskUnits="userSpaceOnUse" x="0" y="0" width="28" height="20">
<rect width="28" height="20" rx="2" fill="white"/>
</mask>
<g mask="url(#mask0_5138_1992)">
<path fill-rule="evenodd" clip-rule="evenodd" d="M0 2.66667H28V0H0V2.66667Z" fill="#262626"/>
<path fill-rule="evenodd" clip-rule="evenodd" d="M0 13.3333H28V10.6667H0V13.3333Z" fill="#262626"/>
<path fill-rule="evenodd" clip-rule="evenodd" d="M0 10.6667H28V6.66666H0V10.6667Z" fill="#ED1623"/>
<path fill-rule="evenodd" clip-rule="evenodd" d="M0 6.66666H28V2.66666H0V6.66666Z" fill="#FEE044"/>
<path fill-rule="evenodd" clip-rule="evenodd" d="M0 20H28V17.3333H0V20Z" fill="#ED1623"/>
<path fill-rule="evenodd" clip-rule="evenodd" d="M0 17.3333H28V13.3333H0V17.3333Z" fill="#FEE044"/>
<circle cx="14" cy="10" r="4.66667" fill="white"/>
<path fill-rule="evenodd" clip-rule="evenodd" d="M12.9024 7.56903C12.7722 7.43885 12.7722 7.2278 12.9024 7.09762L13.3142 6.68577C13.3269 6.67305 13.3383 6.65967 13.3492 6.64534C13.3842 6.5992 13.4735 6.48653 13.5778 6.39167C13.7545 6.23096 14.2579 6.21409 14.4323 6.37732C14.4797 6.42163 14.5229 6.47097 14.5591 6.51618C14.631 6.60615 14.6353 6.72929 14.5838 6.83231L14.0352 7.92961C14.012 7.97589 14 8.02693 14 8.07868V8.46065C14 8.5869 14.0713 8.70232 14.1843 8.75879L15.285 9.30913C15.317 9.32516 15.3462 9.34624 15.3716 9.37157L16.4968 10.4968C16.5982 10.5982 16.6234 10.7532 16.5592 10.8815L16.2068 11.5863C16.1051 11.7898 15.8339 11.8339 15.673 11.673L15.569 11.569C15.4389 11.4389 15.2278 11.4389 15.0976 11.569L14.7643 11.9024C14.7018 11.9649 14.6667 12.0497 14.6667 12.1381V12.5286C14.6667 12.617 14.7018 12.7018 14.7643 12.7643C14.9743 12.9743 14.8256 13.3333 14.5286 13.3333H14.1381C13.8411 13.3333 13.6924 12.9743 13.9024 12.7643C13.9649 12.7018 14 12.617 14 12.5286V12.3333C14 12.1492 13.8508 12 13.6667 12H13.4714C13.383 12 13.2982 12.0351 13.2357 12.0976L12.9024 12.431C12.7722 12.5611 12.5611 12.5611 12.431 12.431L12.2357 12.2357C12.1055 12.1055 12.1055 11.8945 12.2357 11.7643L12.569 11.431C12.6315 11.3684 12.7163 11.3333 12.8047 11.3333H13.1953C13.4922 11.3333 13.641 10.9743 13.431 10.7643L12.2357 9.56903C12.1055 9.43885 12.1055 9.2278 12.2357 9.09762L13.0976 8.23569C13.2278 8.10552 13.2278 7.89446 13.0976 7.76429L12.9024 7.56903Z" fill="#262626"/>
</g>
</g>
<defs>
<clipPath id="clip0_5138_1992">
<rect width="28" height="20" fill="white"/>
</clipPath>
</defs>
</svg>

<svg xmlns="http://www.w3.org/2000/svg" width="28" height="20" fill="none" viewBox="0 0 28 20"><g clip-path="url(#a)"><rect width="28" height="20" fill="#fff" rx="2"/><mask id="b" width="28" height="20" x="0" y="0" maskUnits="userSpaceOnUse" style="mask-type:luminance"><rect width="28" height="20" fill="#fff" rx="2"/></mask><g mask="url(#b)"><path fill="#262626" fill-rule="evenodd" d="M0 2.667h28V0H0zm0 10.666h28v-2.667H0z" clip-rule="evenodd"/><path fill="#ed1623" fill-rule="evenodd" d="M0 10.6667h28v-4H0z" clip-rule="evenodd"/><path fill="#fee044" fill-rule="evenodd" d="M0 6.6667h28v-4H0z" clip-rule="evenodd"/><path fill="#ed1623" fill-rule="evenodd" d="M0 20h28v-2.6667H0z" clip-rule="evenodd"/><path fill="#fee044" fill-rule="evenodd" d="M0 17.3333h28v-4H0z" clip-rule="evenodd"/><circle cx="14" cy="10" r="5" fill="#fff"/><path fill="#262626" fill-rule="evenodd" d="M12.9024 7.569a.3333.3333 0 0 1 0-.4714l.4118-.4118a.4.4 0 0 0 .035-.0405c.035-.0461.1243-.1588.2286-.2536.1767-.1607.6801-.1776.8545-.0144.0474.0443.0906.0937.1268.1389.0719.09.0762.213.0247.3161l-.5486 1.0973a.33.33 0 0 0-.0352.149v.382c0 .1263.0713.2417.1843.2982l1.1007.5503a.34.34 0 0 1 .0866.0625l1.1252 1.1252a.333.333 0 0 1 .0624.3847l-.3524.7048c-.1017.2035-.3729.2476-.5338.0867l-.104-.104a.3335.3335 0 0 0-.4714 0l-.3333.3334a.333.333 0 0 0-.0976.2357v.3905c0 .0884.0351.1732.0976.2357.21.21.0613.569-.2357.569h-.3905c-.297 0-.4457-.359-.2357-.569A.333.333 0 0 0 14 12.5286v-.1953A.3333.3333 0 0 0 13.6667 12h-.1953a.333.333 0 0 0-.2357.0976l-.3333.3334a.3335.3335 0 0 1-.4714 0l-.1953-.1953a.3333.3333 0 0 1 0-.4714l.3333-.3333a.333.333 0 0 1 .2357-.0977h.3906c.2969 0 .4457-.359.2357-.569L12.2357 9.569a.3333.3333 0 0 1 0-.4714l.8619-.862a.3333.3333 0 0 0 0-.4713z" clip-rule="evenodd"/></g></g><defs><clipPath id="a"><path fill="#fff" d="M0 0h28v20H0z"/></clipPath></defs></svg>
